package/converter/svg/thin/arrow-up-to-line.svg

<svg xmlns="http://www.w3.org/2000/svg" viewBox="0 0 384 512"><!-- Font Awesome Pro 6.0.0-alpha2 by @fontawesome - https://fontawesome.com License - https://fontawesome.com/license (Commercial License) --><path d="M197.656 130.344C194.531 127.219 189.469 127.219 186.344 130.344L34.344 282.344C32.781 283.906 32 285.938 32 288S32.781 292.094 34.344 293.656C37.469 296.781 42.531 296.781 45.656 293.656L184 155.312V472C184 476.406 187.578 480 192 480S200 476.406 200 472V155.312L338.344 293.656C341.469 296.781 346.531 296.781 349.656 293.656S352.781 285.469 349.656 282.344L197.656 130.344ZM376 32H8C3.582 32 0 35.582 0 40S3.582 48 8 48H376C380.418 48 384 44.418 384 40S380.418 32 376 32Z"/></svg>

<svg xmlns="http://www.w3.org/2000/svg" viewBox="0 0 384 512"><!--! Font Awesome Pro 6.6.0 by @fontawesome - https://fontawesome.com License - https://fontawesome.com/license (Commercial License) Copyright 2024 Fonticons, Inc. --><path d="M8 32c-4.4 0-8 3.6-8 8s3.6 8 8 8l368 0c4.4 0 8-3.6 8-8s-3.6-8-8-8L8 32zm189.7 98.3c-3.1-3.1-8.2-3.1-11.3 0l-136 136c-3.1 3.1-3.1 8.2 0 11.3s8.2 3.1 11.3 0L184 155.3 184 472c0 4.4 3.6 8 8 8s8-3.6 8-8l0-316.7L322.3 277.7c3.1 3.1 8.2 3.1 11.3 0s3.1-8.2 0-11.3l-136-136z"/></svg>
